src/App/SitePart/RulesPage/img/Timer.svg

<svg width="400" height="240" fill="none" xmlns="http://www.w3.org/2000/svg"><path fill="#FFF3E0" d="M0 0h400v240H0z"/><path d="M128.85 100c1.767-2.767 4.833-4.15 9.2-4.15 4.367 0 7.433 1.383 9.2 4.15 1.8 2.767 2.7 7.35 2.7 13.75s-.9 10.983-2.7 13.75c-1.767 2.767-4.833 4.15-9.2 4.15-4.367 0-7.433-1.383-9.2-4.15-1.767-2.767-2.65-7.35-2.65-13.75s.883-10.983 2.65-13.75zm15.1 2.85c-1.1-2.1-3.067-3.15-5.9-3.15s-4.8 1.05-5.9 3.15c-1.1 2.1-1.65 5.733-1.65 10.9 0 5.167.55 8.8 1.65 10.9 1.1 2.1 3.067 3.15 5.9 3.15s4.8-1.05 5.9-3.15c1.133-2.1 1.7-5.733 1.7-10.9 0-5.167-.567-8.8-1.7-10.9zm20.027-2.85c1.767-2.767 4.833-4.15 9.2-4.15 4.367 0 7.433 1.383 9.2 4.15 1.8 2.767 2.7 7.35 2.7 13.75s-.9 10.983-2.7 13.75c-1.767 2.767-4.833 4.15-9.2 4.15-4.367 0-7.433-1.383-9.2-4.15-1.767-2.767-2.65-7.35-2.65-13.75s.883-10.983 2.65-13.75zm15.1 2.85c-1.1-2.1-3.067-3.15-5.9-3.15s-4.8 1.05-5.9 3.15c-1.1 2.1-1.65 5.733-1.65 10.9 0 5.167.55 8.8 1.65 10.9 1.1 2.1 3.067 3.15 5.9 3.15s4.8-1.05 5.9-3.15c1.133-2.1 1.7-5.733 1.7-10.9 0-5.167-.567-8.8-1.7-10.9zm19.227 6.15h1.4c.567 0 .967.117 1.2.35.267.233.4.633.4 1.2v2.75c0 .6-.133 1.017-.4 1.25-.233.233-.633.35-1.2.35h-1.4c-.567 0-.983-.117-1.25-.35-.233-.233-.35-.65-.35-1.25v-2.75c0-.567.117-.967.35-1.2.267-.233.683-.35 1.25-.35zm0 16.1h1.4c.567 0 .967.117 1.2.35.267.233.4.65.4 1.25v2.7c0 .6-.133 1.017-.4 1.25-.233.233-.633.35-1.2.35h-1.4c-.567 0-.983-.117-1.25-.35-.233-.233-.35-.65-.35-1.25v-2.7c0-.6.117-1.017.35-1.25.267-.233.683-.35 1.25-.35zM215.92 100c1.767-2.767 4.834-4.15 9.2-4.15 4.367 0 7.434 1.383 9.2 4.15 1.8 2.767 2.7 7.35 2.7 13.75s-.9 10.983-2.7 13.75c-1.766 2.767-4.833 4.15-9.2 4.15-4.366 0-7.433-1.383-9.2-4.15-1.766-2.767-2.65-7.35-2.65-13.75s.884-10.983 2.65-13.75zm15.1 2.85c-1.1-2.1-3.066-3.15-5.9-3.15-2.833 0-4.8 1.05-5.9 3.15-1.1 2.1-1.65 5.733-1.65 10.9 0 5.167.55 8.8 1.65 10.9 1.1 2.1 3.067 3.15 5.9 3.15 2.834 0 4.8-1.05 5.9-3.15 1.134-2.1 1.7-5.733 1.7-10.9 0-5.167-.566-8.8-1.7-10.9zm36.977-2.6h-14.5l-.5 9.4 3.7.3c4.6.333 7.834 1.283 9.7 2.85 1.9 1.567 2.834 4.183 2.8 7.85 0 1.2-.083 2.3-.25 3.3-.166.967-.5 1.95-1 2.95a7.24 7.24 0 0 1-1.9 2.45c-.8.667-1.883 1.217-3.25 1.65-1.333.4-2.916.6-4.75.6-3.2 0-6.616-.417-10.25-1.25l.5-3.55c3.367.6 6.284.9 8.75.9 3.067 0 5.117-.55 6.15-1.65 1.067-1.1 1.634-2.9 1.7-5.4.034-1.067-.033-1.967-.2-2.7-.133-.767-.45-1.4-.95-1.9-.466-.533-.933-.933-1.4-1.2-.433-.3-1.216-.55-2.35-.75-1.1-.2-2.083-.333-2.95-.4-.866-.1-2.183-.2-3.95-.3l-2.3-.15a2.114 2.114 0 0 1-1.25-.6c-.3-.367-.433-.817-.4-1.35l.8-14.8h18.25l-.2 3.75z" fill="#0097A7"/></svg>

<svg width="400" height="240" viewBox="0 0 400 240" fill="none" xmlns="http://www.w3.org/2000/svg">
<rect width="400" height="240" fill="#FFF3E0"/>
<path d="M128.85 100C130.617 97.2333 133.683 95.85 138.05 95.85C142.417 95.85 145.483 97.2333 147.25 100C149.05 102.767 149.95 107.35 149.95 113.75C149.95 120.15 149.05 124.733 147.25 127.5C145.483 130.267 142.417 131.65 138.05 131.65C133.683 131.65 130.617 130.267 128.85 127.5C127.083 124.733 126.2 120.15 126.2 113.75C126.2 107.35 127.083 102.767 128.85 100ZM143.95 102.85C142.85 100.75 140.883 99.7 138.05 99.7C135.217 99.7 133.25 100.75 132.15 102.85C131.05 104.95 130.5 108.583 130.5 113.75C130.5 118.917 131.05 122.55 132.15 124.65C133.25 126.75 135.217 127.8 138.05 127.8C140.883 127.8 142.85 126.75 143.95 124.65C145.083 122.55 145.65 118.917 145.65 113.75C145.65 108.583 145.083 104.95 143.95 102.85ZM163.977 100C165.744 97.2333 168.81 95.85 173.177 95.85C177.544 95.85 180.61 97.2333 182.377 100C184.177 102.767 185.077 107.35 185.077 113.75C185.077 120.15 184.177 124.733 182.377 127.5C180.61 130.267 177.544 131.65 173.177 131.65C168.81 131.65 165.744 130.267 163.977 127.5C162.21 124.733 161.327 120.15 161.327 113.75C161.327 107.35 162.21 102.767 163.977 100ZM179.077 102.85C177.977 100.75 176.01 99.7 173.177 99.7C170.344 99.7 168.377 100.75 167.277 102.85C166.177 104.95 165.627 108.583 165.627 113.75C165.627 118.917 166.177 122.55 167.277 124.65C168.377 126.75 170.344 127.8 173.177 127.8C176.01 127.8 177.977 126.75 179.077 124.65C180.21 122.55 180.777 118.917 180.777 113.75C180.777 108.583 180.21 104.95 179.077 102.85ZM198.304 109H199.704C200.271 109 200.671 109.117 200.904 109.35C201.171 109.583 201.304 109.983 201.304 110.55V113.3C201.304 113.9 201.171 114.317 200.904 114.55C200.671 114.783 200.271 114.9 199.704 114.9H198.304C197.737 114.9 197.321 114.783 197.054 114.55C196.821 114.317 196.704 113.9 196.704 113.3V110.55C196.704 109.983 196.821 109.583 197.054 109.35C197.321 109.117 197.737 109 198.304 109ZM198.304 125.1H199.704C200.271 125.1 200.671 125.217 200.904 125.45C201.171 125.683 201.304 126.1 201.304 126.7V129.4C201.304 130 201.171 130.417 200.904 130.65C200.671 130.883 200.271 131 199.704 131H198.304C197.737 131 197.321 130.883 197.054 130.65C196.821 130.417 196.704 130 196.704 129.4V126.7C196.704 126.1 196.821 125.683 197.054 125.45C197.321 125.217 197.737 125.1 198.304 125.1ZM215.92 100C217.687 97.2333 220.754 95.85 225.12 95.85C229.487 95.85 232.554 97.2333 234.32 100C236.12 102.767 237.02 107.35 237.02 113.75C237.02 120.15 236.12 124.733 234.32 127.5C232.554 130.267 229.487 131.65 225.12 131.65C220.754 131.65 217.687 130.267 215.92 127.5C214.154 124.733 213.27 120.15 213.27 113.75C213.27 107.35 214.154 102.767 215.92 100ZM231.02 102.85C229.92 100.75 227.954 99.7 225.12 99.7C222.287 99.7 220.32 100.75 219.22 102.85C218.12 104.95 217.57 108.583 217.57 113.75C217.57 118.917 218.12 122.55 219.22 124.65C220.32 126.75 222.287 127.8 225.12 127.8C227.954 127.8 229.92 126.75 231.02 124.65C232.154 122.55 232.72 118.917 232.72 113.75C232.72 108.583 232.154 104.95 231.02 102.85ZM267.997 100.25H253.497L252.997 109.65L256.697 109.95C261.297 110.283 264.531 111.233 266.397 112.8C268.297 114.367 269.231 116.983 269.197 120.65C269.197 121.85 269.114 122.95 268.947 123.95C268.781 124.917 268.447 125.9 267.947 126.9C267.481 127.867 266.847 128.683 266.047 129.35C265.247 130.017 264.164 130.567 262.797 131C261.464 131.4 259.881 131.6 258.047 131.6C254.847 131.6 251.431 131.183 247.797 130.35L248.297 126.8C251.664 127.4 254.581 127.7 257.047 127.7C260.114 127.7 262.164 127.15 263.197 126.05C264.264 124.95 264.831 123.15 264.897 120.65C264.931 119.583 264.864 118.683 264.697 117.95C264.564 117.183 264.247 116.55 263.747 116.05C263.281 115.517 262.814 115.117 262.347 114.85C261.914 114.55 261.131 114.3 259.997 114.1C258.897 113.9 257.914 113.767 257.047 113.7C256.181 113.6 254.864 113.5 253.097 113.4L250.797 113.25C250.297 113.183 249.881 112.983 249.547 112.65C249.247 112.283 249.114 111.833 249.147 111.3L249.947 96.5H268.197L267.997 100.25Z" fill="#0097A7"/>
</svg>
